X: 80
T: Rabbit In the Hollow
O: German
N: (Game Song. For directions, see page 8.)
%R: air, march
B: "The Everyday Song Book", 1927
F: http://www.library.pitt.edu/happybirthday/pdf/The_Everyday_Song_Book.pdf
Z: 2017 John Chambers <jc:trillian.mit.edu>
M: 2/4
L: 1/8
K: F
% - - - - - - - - - - - - - - - - - - - - - - - - - - - - -
[| F G A B | c2 (dB) | Az Gz | F2 z2 |
w: Rab-bit in the hol-low* sits and sleeps,
%
[| F G A B | c2 (dB) | Az Gz | F2 z2 |
w: Hun-ter in the for-est* hear-er creeps;
%
c> B A c | B A G z | c> B A> c |
w: Lit-tle rab-bit have a care,  Deep with-in the
%
B A G z | F G A B | (cf) d B | Az Gz | F2 z2 |]
w: hol-low there  Quick-ly to your home* you must run, run run.
% - - - - - - - - - - - - - - - - - - - - - - - - - - - - -
